flaticon/interaction/user-33.svg

<svg xmlns="http://www.w3.org/2000/svg" width="32" height="32" viewBox="0 0 24 24">
    <path d="M 13.863281 14.070312 L 13.863281 24 L 23.792969 24 L 23.792969 14.070312 Z M 22.964844 23.171875 L 19.242188 23.171875 L 19.242188 17.964844 L 21.019531 19.742188 L 21.601562 19.15625 L 18.828125 16.378906 L 16.050781 19.15625 L 16.636719 19.742188 L 18.414062 17.964844 L 18.414062 23.171875 L 14.691406 23.171875 L 14.691406 14.898438 L 22.964844 14.898438 Z M 22.964844 23.171875"/>
    <path d="M 11.585938 21.929688 C 11.324219 21.929688 11.0625 21.917969 10.800781 21.898438 C 10.757812 21.894531 10.710938 21.890625 10.667969 21.886719 C 10.40625 21.867188 10.144531 21.835938 9.882812 21.792969 C 9.875 21.789062 9.863281 21.789062 9.851562 21.785156 C 9.304688 21.695312 8.761719 21.558594 8.238281 21.382812 C 8.222656 21.378906 8.207031 21.375 8.195312 21.367188 C 7.683594 21.195312 7.183594 20.980469 6.703125 20.730469 C 6.675781 20.714844 6.648438 20.703125 6.621094 20.6875 C 6.410156 20.574219 6.199219 20.449219 5.996094 20.320312 C 5.933594 20.285156 5.878906 20.246094 5.820312 20.207031 C 5.628906 20.085938 5.445312 19.957031 5.261719 19.820312 C 5.246094 19.808594 5.226562 19.792969 5.207031 19.777344 C 5.222656 19.769531 5.234375 19.761719 5.25 19.753906 L 8.519531 17.972656 C 9.082031 17.664062 9.433594 17.074219 9.433594 16.433594 L 9.433594 14.941406 L 9.335938 14.828125 C 9.328125 14.816406 8.433594 13.738281 8.09375 12.257812 L 8.058594 12.09375 L 7.914062 12 C 7.71875 11.871094 7.597656 11.65625 7.597656 11.425781 L 7.597656 9.957031 C 7.597656 9.765625 7.679688 9.585938 7.828125 9.453125 L 7.964844 9.328125 L 7.964844 7.023438 L 7.960938 6.96875 C 7.960938 6.960938 7.835938 5.964844 8.539062 5.164062 C 9.136719 4.484375 10.164062 4.136719 11.585938 4.136719 C 13.003906 4.136719 14.027344 4.480469 14.625 5.160156 C 15.324219 5.949219 15.210938 6.964844 15.210938 6.972656 L 15.207031 9.332031 L 15.34375 9.453125 C 15.492188 9.585938 15.574219 9.765625 15.574219 9.960938 L 15.574219 11.425781 C 15.574219 11.726562 15.378906 11.988281 15.085938 12.078125 C 14.867188 12.144531 14.746094 12.378906 14.8125 12.59375 C 14.878906 12.8125 15.109375 12.9375 15.328125 12.867188 C 15.96875 12.671875 16.402344 12.089844 16.402344 11.425781 L 16.402344 9.960938 C 16.402344 9.601562 16.269531 9.253906 16.035156 8.980469 L 16.035156 7.046875 C 16.054688 6.832031 16.132812 5.621094 15.253906 4.621094 C 14.492188 3.75 13.257812 3.308594 11.585938 3.308594 C 9.914062 3.308594 8.679688 3.75 7.917969 4.621094 C 7.039062 5.621094 7.117188 6.832031 7.136719 7.046875 L 7.136719 8.980469 C 6.902344 9.253906 6.769531 9.601562 6.769531 9.960938 L 6.769531 11.425781 C 6.769531 11.882812 6.976562 12.304688 7.324219 12.59375 C 7.660156 13.90625 8.351562 14.898438 8.605469 15.238281 L 8.605469 16.433594 C 8.605469 16.773438 8.421875 17.082031 8.125 17.246094 L 4.851562 19.03125 C 4.746094 19.085938 4.644531 19.152344 4.539062 19.226562 C 2.390625 17.292969 1.035156 14.492188 1.035156 11.378906 C 1.035156 5.5625 5.769531 0.828125 11.585938 0.828125 C 17.40625 0.828125 22.136719 5.5625 22.136719 11.378906 C 22.136719 11.609375 22.324219 11.792969 22.550781 11.792969 C 22.78125 11.792969 22.964844 11.609375 22.964844 11.378906 C 22.964844 5.105469 17.859375 0 11.585938 0 C 5.3125 0 0.207031 5.105469 0.207031 11.378906 C 0.207031 14.695312 1.632812 17.679688 3.902344 19.761719 L 3.890625 19.773438 L 4.257812 20.082031 C 4.28125 20.101562 4.308594 20.117188 4.332031 20.136719 C 4.527344 20.300781 4.734375 20.457031 4.941406 20.609375 C 5.007812 20.65625 5.074219 20.703125 5.140625 20.75 C 5.359375 20.902344 5.589844 21.046875 5.820312 21.183594 C 5.871094 21.214844 5.921875 21.242188 5.972656 21.269531 C 6.226562 21.414062 6.484375 21.550781 6.75 21.675781 C 6.769531 21.6875 6.789062 21.695312 6.808594 21.703125 C 7.671875 22.105469 8.597656 22.398438 9.558594 22.574219 C 9.585938 22.578125 9.609375 22.582031 9.636719 22.589844 C 9.9375 22.640625 10.238281 22.679688 10.546875 22.707031 C 10.582031 22.710938 10.621094 22.714844 10.65625 22.71875 C 10.964844 22.742188 11.273438 22.757812 11.585938 22.757812 C 11.816406 22.757812 12 22.574219 12 22.34375 C 12 22.117188 11.816406 21.929688 11.585938 21.929688 Z M 11.585938 21.929688"/>
</svg>

<svg xmlns="http://www.w3.org/2000/svg" width="32" height="32" viewBox="0 0 24 24">
    <path d="M13.863 14.07V24h9.93v-9.93zm9.102 9.102h-3.723v-5.207l1.778 1.777.582-.586-2.774-2.777-2.777 2.777.586.586 1.777-1.777v5.207h-3.723v-8.274h8.274zm0 0"/>
    <path d="M11.586 21.93c-.262 0-.524-.012-.785-.032l-.133-.011a8.96 8.96 0 0 1-.785-.094c-.008-.004-.02-.004-.031-.008-.547-.09-1.09-.226-1.614-.402-.015-.004-.031-.008-.043-.016a10.445 10.445 0 0 1-1.492-.637c-.027-.015-.055-.027-.082-.043-.21-.113-.422-.238-.625-.367-.062-.035-.117-.074-.176-.113a8.9 8.9 0 0 1-.613-.43c.016-.007.027-.015.043-.023l3.27-1.781c.562-.309.914-.899.914-1.54v-1.492l-.098-.113c-.008-.012-.902-1.09-1.242-2.57l-.035-.164L7.914 12a.692.692 0 0 1-.316-.574V9.957c0-.191.082-.371.23-.504l.137-.125V7.023L7.96 6.97c0-.008-.125-1.004.578-1.805.598-.68 1.625-1.027 3.047-1.027 1.418 0 2.441.343 3.039 1.023.7.79.586 1.805.586 1.813l-.004 2.359.137.121c.148.133.23.313.23.508v1.465a.68.68 0 0 1-.488.652.413.413 0 0 0 .242.79 1.506 1.506 0 0 0 1.074-1.442V9.96c0-.36-.132-.707-.367-.98V7.046c.02-.215.098-1.426-.781-2.426-.762-.871-1.996-1.312-3.668-1.312-1.672 0-2.906.441-3.668 1.312-.879 1-.8 2.211-.781 2.426V8.98a1.51 1.51 0 0 0-.367.98v1.466c0 .457.207.879.554 1.168.336 1.312 1.028 2.304 1.281 2.644v1.196c0 .34-.183.648-.48.812l-3.273 1.785a2.735 2.735 0 0 0-.313.196 10.534 10.534 0 0 1-3.504-7.848c0-5.816 4.735-10.55 10.55-10.55 5.821 0 10.552 4.734 10.552 10.55a.414.414 0 0 0 .828 0C22.965 5.105 17.859 0 11.585 0 5.313 0 .208 5.105.208 11.379c0 3.316 1.426 6.3 3.695 8.383l-.011.011.367.309c.023.02.05.035.074.055.195.164.402.32.61.472l.199.141a11.129 11.129 0 0 0 .832.52c.254.144.511.28.777.406a11.345 11.345 0 0 0 3.797 1.031l.11.012c.308.023.616.039.929.039a.414.414 0 0 0 0-.828zm0 0"/>
</svg>
